X:15837
T:Spootiskerry
C:Ian Burns
D:Silly Wizard
R:Reel
A:Scotland
M:C|
L:1/8
Z:WM Aug 1997 from a sheet from Sandy's old book
K:G
DE | "G"G2 (uDE)  GDEG | DEGA B2 (uAB)| G2 (uDE) "Em"GABd | "Am"eged "D7"B2 (uAB) |
 "G"G2 (uDE)  GDEG | DEGA B2 (uAB) | "C"g2(ued) "D7"edBA | "G"B2 G2 G2 :|
(uef) | "G"g2 (ued) ed B2 | "G7"(uBA)BG "C"E2 (uDE) | "G"GABd "Em"eged |
|1 "A7"B2 A2 "D"A2 (uef) | "G"g2 (ued) ed B2 | "G7"(uBA) BG "C"E2 (uDE) |  "G"GABd "D7"eged | "G"B2 G2 G2  :|
|2 "A7"B2 A2 "D7"A2 (uDE) |"G"G2 (uDE)  GDEG | DEGA B2 (uAB) | "C"g2(ued) "D7"edBA | "G"B2 G2 G2 ||
